X:1
T:Title
%%score ( 1 2 ) { 3 | 4 }
L:1/8
Q:1/4=150
M:4/4
K:Eb
V:1 treble nm="Grand Piano, Unnamed-000"
V:2 treble 
V:3 bass nm="Choir Pad, Naomi (CM)"
V:4 bass 
V:1
 [EG]4 [EG]2 [EG]2 | [GB]4 [FA]2 [EG]2 | [DF]2 [EG]2 [FA]4 | [EG]4 [EG]4 | [Gc]6 [Gc]2 | %5
w: By~Lowell~Mason,~arr.~fm~Hans~N�geli,~1836 * *|||||
 [FB]4 [E=A]4 | [DB]8 | [EG]4 [EG]2 [EG]2 | [GB]4 [FA]2 [EG]2 | [DF]2 [EG]2 [FA]4 | [EG]4 [EG]4 | %11
w: ||||||
 [Ec]6 [Ec]2 | B2 G2 [DF]4 | [EG]8- | [EG]4 z4 |] %15
w: ||||
V:2
 x8 | x8 | x8 | x8 | x8 | x8 | x8 | x8 | x8 | x8 | x8 | x8 | E4 z4 | x8 | x8 |] %15
V:3
 B,4 B,2 B,2 | B,4 B,4 | B,4 B,4 | B,4 B,4 | E6 E2 | D4 C4 | B,8 | B,4 B,2 B,2 | B,4 B,4 | %9
 B,4 B,4 | B,4 B,4 | A,6 A,2 | G,2 B,2 B,4 | B,8- | B,4 z4 |] %15
V:4
 E,4 E,2 E,2 | E,4 E,4 | z4 B,,4 | E,4 E,4 | C,6 C,2 | F,4 F,4 | B,,8 | E,4 E,2 E,2 | E,4 E,4 | %9
 z4 B,,4 | E,4 E,4 | A,,6 A,,2 | B,,4 B,,4 | E,8- | E,4 z4 |] %15

